X:976
T:Minnie Dempsey's
S:Tony DeMarco, The Sligo Indians (2008)
Z:Nigel Gatherer
L:1/8
M:2/4
K:C
Gc A/B/c/A/ | GE E/F/G/E/ | DA, A,/G,/A, | CA, A,/G,/A, |
Gc A/B/c/A/ | GE E>E | DA, A,/G,/A,/C/ | DC C2 :|
Gc c/B/c/d/ | e>e e/f/g/e/ | dB B/A/B/d/ | cA A/^G/A |
Gc c/B/c/d/ | e>e e/a/g/e/ | dB B/A/B/c/ | dc c2 :|
<end>
<start>
